;FLAVOR:Marlin
;TIME:8239
;Filament used: 8.39363m
;Layer height: 0.2
;MINX:52.2
;MINY:52.2
;MINZ:0.3
;MAXX:167.8
;MAXY:167.8
;MAXZ:19.9
;Generated with Cura_SteamEngine 4.1.0
M140 S60
M105
M190 S60
M104 S200
M105
M109 S200
M82 ;absolute extrusion mode
G21 ;metric values
G90 ;absolute positioning
M82 ;set extruder to absolute mode
M107 ;start with the fan off
G28 X0 Y0 ;move X/Y to min endstops
G28 Z0 ;move Z to min endstops
G1 Z15.0 F9000 ;move the platform down 15mm
G92 E0 ;zero the extruded length
G1 F200 E3 ;extrude 3mm of feed stock
G92 E0 ;zero the extruded length again
G1 F9000;Put printing message on LCD screen
M117 Printing..0
G92 E0
G92 E0
G1 F1500 E-6.5
;LAYER_COUNT:99
;LAYER:0
M107
G0 F3600 X54.676 Y54.307 Z0.3
;TYPE:SKIRT
G1 F1500 E0
G1 F1800 X55.279 Y53.797 E0.0394
G1 X55.931 Y53.351 E0.07881
G1 X56.624 Y52.972 E0.11822
G1 X57.352 Y52.666 E0.15762
G1 X58.107 Y52.435 E0.19701
G1 X58.881 Y52.282 E0.23637
G1 X60.008 Y52.2 E0.29274
G1 X159.992 Y52.2 E5.28097
G1 X160.781 Y52.24 E5.32038
G1 X161.561 Y52.359 E5.35974
G1 X162.326 Y52.557 E5.39917
G1 X163.066 Y52.831 E5.43854
G1 X163.775 Y53.179 E5.47794
G1 X164.446 Y53.597 E5.51738
G1 X165.07 Y54.08 E5.55675
G1 X165.643 Y54.623 E5.59613
G1 X166.158 Y55.222 E5.63554
G1 X166.609 Y55.87 E5.67493
G1 X166.993 Y56.561 E5.71437
G1 X167.305 Y57.286 E5.75375
G1 X167.542 Y58.039 E5.79313
G1 X167.701 Y58.813 E5.83255
G1 X167.791 Y59.896 E5.88677
G1 X167.799 Y60.496 E5.91671
G1 X167.8 Y60.6 E5.9219
G1 X167.8 Y158.998 E10.83099
G1 X167.76 Y159.787 E10.87041
G1 X167.622 Y160.654 E10.91421
G1 X167.534 Y161.059 E10.93488
G1 X167.328 Y161.821 E10.97426
G1 X167.045 Y162.559 E11.0137
G1 X166.619 Y163.384 E11.06002
G1 X166.489 Y163.603 E11.07273
G1 X166.052 Y164.261 E11.11213
G1 X165.551 Y164.872 E11.15155
G1 X164.991 Y165.428 E11.19093
G1 X164.652 Y165.714 E11.21305
G1 X164.303 Y165.993 E11.23534
G1 X163.663 Y166.455 E11.27472
G1 X162.978 Y166.849 E11.31415
G1 X162.258 Y167.172 E11.35352
G1 X161.179 Y167.503 E11.40983
G1 X160.748 Y167.602 E11.43189
G1 X159.971 Y167.74 E11.47126
G1 X159.002 Y167.8 E11.5197
G1 X61.002 Y167.8 E16.40894
G1 X59.891 Y167.72 E16.46451
G1 X59.634 Y167.683 E16.47746
G1 X58.859 Y167.531 E16.51686
G1 X58.103 Y167.302 E16.55627
G1 X57.295 Y166.958 E16.60009
G1 X56.928 Y166.777 E16.6205
G1 X56.238 Y166.393 E16.6599
G1 X55.591 Y165.94 E16.6993
G1 X54.715 Y165.146 E16.75829
G1 X54.536 Y164.957 E16.77127
G1 X54.022 Y164.356 E16.81073
G1 X53.572 Y163.708 E16.85009
G1 X53.137 Y162.905 E16.89565
G1 X52.963 Y162.534 E16.91609
G1 X52.664 Y161.803 E16.9555
G1 X52.441 Y161.046 E16.99487
G1 X52.296 Y160.269 E17.0343
G1 X52.225 Y159.235 E17.08601
G1 X52.2 Y144.763 E17.80802
G1 X52.2 Y60.073 E22.03322
G1 X52.246 Y59.223 E22.07569
G1 X52.254 Y59.15 E22.07935
G1 X52.38 Y58.371 E22.11872
G1 X52.584 Y57.608 E22.15813
G1 X52.864 Y56.869 E22.19755
G1 X53.217 Y56.163 E22.23693
G1 X53.64 Y55.496 E22.27634
G1 X54.128 Y54.875 E22.31574
G1 X54.676 Y54.307 E22.35512
G0 F3600 X55.053 Y54.504
G1 F1800 X55.65 Y54.02 E22.39346
G1 X56.294 Y53.599 E22.43185
G1 X56.979 Y53.249 E22.47022
G1 X57.696 Y52.971 E22.50859
G1 X58.438 Y52.768 E22.54697
G1 X59.197 Y52.645 E22.58533
G1 X60.008 Y52.6 E22.62585
G1 X159.992 Y52.6 E27.61407
G1 X160.76 Y52.64 E27.65244
G1 X161.52 Y52.759 E27.69082
G1 X162.263 Y52.957 E27.72918
G1 X162.982 Y53.231 E27.76757
G1 X163.668 Y53.578 E27.80592
G1 X164.315 Y53.994 E27.8443
G1 X164.915 Y54.475 E27.88267
G1 X165.462 Y55.016 E27.92105
G1 X165.95 Y55.611 E27.95944
G1 X166.373 Y56.253 E27.9978
G1 X166.728 Y56.936 E28.0362
G1 X167.009 Y57.651 E28.07453
G1 X167.215 Y58.393 E28.11295
G1 X167.343 Y59.151 E28.1513
G1 X167.391 Y59.901 E28.18879
G1 X167.399 Y60.501 E28.21873
G1 X167.4 Y60.6 E28.22367
G1 X167.4 Y158.998 E33.13276
G1 X167.36 Y159.766 E33.17113
G1 X167.231 Y160.569 E33.21171
G1 X167.143 Y160.974 E33.23238
G1 X166.941 Y161.716 E33.27075
G1 X166.663 Y162.433 E33.30912
G1 X166.275 Y163.18 E33.35111
G1 X166.145 Y163.399 E33.36382
G1 X165.719 Y164.039 E33.40217
G1 X165.228 Y164.632 E33.44058
G1 X164.403 Y165.402 E33.49689
G1 X164.054 Y165.681 E33.51918
G1 X163.429 Y166.129 E33.55754
G1 X162.761 Y166.511 E33.59593
G1 X162.057 Y166.82 E33.63429
G1 X161.09 Y167.113 E33.6847
G1 X160.659 Y167.212 E33.70676
G1 X159.901 Y167.345 E33.74516
G1 X159.002 Y167.4 E33.79009
G1 X61.002 Y167.4 E38.67933
G1 X59.948 Y167.324 E38.73205
G1 X59.691 Y167.287 E38.74501
G1 X58.936 Y167.138 E38.7834
G1 X58.201 Y166.912 E38.82176
G1 X57.472 Y166.6 E38.86132
G1 X57.105 Y166.419 E38.88174
G1 X56.434 Y166.043 E38.92011
G1 X55.805 Y165.6 E38.9585
G1 X55.005 Y164.871 E39.01249
G1 X54.826 Y164.682 E39.02548
G1 X54.327 Y164.096 E39.06388
G1 X53.891 Y163.463 E39.10223
G1 X53.499 Y162.735 E39.14348
G1 X53.325 Y162.364 E39.16392
G1 X53.035 Y161.652 E39.20228
G1 X52.821 Y160.913 E39.24066
G1 X52.684 Y160.156 E39.27904
G1 X52.625 Y159.235 E39.32508
G1 X52.6 Y144.763 E40.0471
G1 X52.6 Y60.073 E44.2723
G1 X52.644 Y59.267 E44.31257
G1 X52.652 Y59.194 E44.31623
G1 X52.775 Y58.435 E44.35459
G1 X52.977 Y57.692 E44.39301
G1 X53.255 Y56.975 E44.43137
G1 X53.605 Y56.29 E44.46975
G1 X54.025 Y55.646 E44.50811
G1 X54.509 Y55.048 E44.54649
G1 X55.053 Y54.504 E44.58487
G0 F3600 X55.428 Y54.706
G1 F1800 X56.019 Y54.248 E44.62218
G1 X56.656 Y53.855 E44.65952
G1 X57.331 Y53.532 E44.69685
G1 X58.036 Y53.283 E44.73415
G1 X58.764 Y53.111 E44.77147
G1 X59.506 Y53.018 E44.80878
G1 X60.008 Y53 E44.83384
G1 X159.992 Y53 E49.82206
G1 X160.739 Y53.04 E49.85938
G1 X161.477 Y53.159 E49.89668
G1 X162.199 Y53.357 E49.93403
G1 X162.895 Y53.63 E49.97133
G1 X163.558 Y53.977 E50.00866
G1 X164.181 Y54.392 E50.04601
G1 X164.755 Y54.871 E50.08331
G1 X165.276 Y55.408 E50.12064
G1 X165.735 Y55.998 E50.15793
G1 X166.13 Y56.634 E50.19528
G1 X166.454 Y57.308 E50.23259
G1 X166.704 Y58.013 E50.26991
G1 X166.878 Y58.741 E50.30725
G1 X166.973 Y59.483 E50.34457
G1 X166.991 Y59.907 E50.36574
G1 X166.999 Y60.507 E50.39568
G1 X167 Y60.6 E50.40032
G1 X167 Y158.998 E55.30942
G1 X166.96 Y159.745 E55.34674
G1 X166.84 Y160.484 E55.38409
G1 X166.752 Y160.889 E55.40477
G1 X166.555 Y161.611 E55.44211
G1 X166.281 Y162.307 E55.47942
G1 X165.931 Y162.976 E55.51709
G1 X165.801 Y163.195 E55.5298
G1 X165.386 Y163.817 E55.5671
G1 X164.906 Y164.391 E55.60443
G1 X164.153 Y165.09 E55.65569
G1 X163.804 Y165.369 E55.67798
G1 X163.196 Y165.804 E55.71528
G1 X162.544 Y166.172 E55.75263
G1 X161.857 Y166.468 E55.78995
G1 X161 Y166.723 E55.83456
G1 X160.569 Y166.822 E55.85662
G1 X159.832 Y166.951 E55.89395
G1 X159.002 Y167 E55.93543
G1 X61.002 Y167 E60.82467
G1 X60.005 Y166.929 E60.87454
G1 X59.748 Y166.892 E60.88749
G1 X59.014 Y166.746 E60.92483
G1 X58.3 Y166.522 E60.96216
G1 X57.649 Y166.241 E60.99754
G1 X57.282 Y166.06 E61.01795
G1 X56.629 Y165.694 E61.0553
G1 X56.02 Y165.26 E61.09261
G1 X55.296 Y164.595 E61.14165
G1 X55.117 Y164.406 E61.15464
G1 X54.632 Y163.837 E61.19194
G1 X54.211 Y163.218 E61.22929
G1 X53.861 Y162.565 E61.26625
G1 X53.687 Y162.194 E61.2867
G1 X53.406 Y161.501 E61.324
G1 X53.201 Y160.782 E61.3613
G1 X53.074 Y160.045 E61.39862
G1 X53.025 Y159.234 E61.43915
G1 X53 Y144.762 E62.16116
G1 X53 Y60.073 E66.38631
G1 X53.042 Y59.31 E66.42444
G1 X53.05 Y59.237 E66.4281
G1 X53.171 Y58.499 E66.46541
G1 X53.37 Y57.778 E66.50273
G1 X53.645 Y57.083 E66.54002
G1 X53.993 Y56.42 E66.57737
G1 X54.409 Y55.799 E66.61467
G1 X54.889 Y55.225 E66.652
G1 X55.428 Y54.706 E66.68933
G0 F3600 X55.269 Y55.406
G1 F1800 X55.802 Y54.913 E66.72555
G1 X56.387 Y54.482 E66.7618
G1 X57.015 Y54.118 E66.79801
G1 X57.68 Y53.824 E66.83429
G1 X58.372 Y53.606 E66.87048
G1 X59.085 Y53.465 E66.90675
G1 X60.008 Y53.4 E66.95291
G1 X159.992 Y53.4 E71.94113
G1 X160.717 Y53.44 E71.97736
G1 X161.434 Y53.559 E72.01362
G1 X162.133 Y53.757 E72.04986
G1 X162.806 Y54.03 E72.08609
G1 X163.445 Y54.375 E72.12232
G1 X164.042 Y54.789 E72.15857
G1 X164.59 Y55.265 E72.19478
G1 X165.083 Y55.799 E72.23104
G1 X165.513 Y56.384 E72.26726
G1 X165.877 Y57.013 E72.30352
G1 X166.17 Y57.678 E72.33978
G1 X166.388 Y58.371 E72.37602
G1 X166.528 Y59.083 E72.41222
G1 X166.591 Y59.912 E72.4537
G1 X166.599 Y60.512 E72.48364
G1 X166.6 Y60.6 E72.48803
G1 X166.6 Y158.998 E77.39712
G1 X166.56 Y159.723 E77.43335
G1 X166.45 Y160.399 E77.46752
G1 X166.362 Y160.804 E77.4882
G1 X166.168 Y161.505 E77.52448
G1 X165.9 Y162.179 E77.56067
G1 X165.587 Y162.772 E77.59412
G1 X165.457 Y162.991 E77.60683
G1 X165.053 Y163.594 E77.64304
G1 X164.584 Y164.149 E77.67929
G1 X163.903 Y164.777 E77.72551
G1 X163.554 Y165.056 E77.7478
G1 X162.963 Y165.478 E77.78403
G1 X162.329 Y165.832 E77.82026
G1 X161.659 Y166.114 E77.85652
G1 X160.911 Y166.333 E77.89541
G1 X160.48 Y166.432 E77.91747
G1 X159.764 Y166.556 E77.95372
G1 X159.002 Y166.6 E77.9918
G1 X61.002 Y166.6 E82.88104
G1 X60.062 Y166.533 E82.92806
G1 X59.805 Y166.496 E82.94101
G1 X59.092 Y166.353 E82.97729
G1 X58.4 Y166.132 E83.01354
G1 X57.826 Y165.882 E83.04477
G1 X57.459 Y165.701 E83.06519
G1 X56.826 Y165.345 E83.10142
G1 X56.236 Y164.921 E83.13767
G1 X55.586 Y164.32 E83.18183
G1 X55.407 Y164.131 E83.19482
G1 X54.937 Y163.577 E83.23106
G1 X54.531 Y162.975 E83.26729
G1 X54.224 Y162.396 E83.29999
G1 X54.05 Y162.025 E83.32043
G1 X53.778 Y161.351 E83.35669
G1 X53.582 Y160.652 E83.39291
G1 X53.464 Y159.935 E83.42916
G1 X53.425 Y159.233 E83.46424
G1 X53.4 Y144.761 E84.18625
G1 X53.4 Y60.073 E88.41135
G1 X53.439 Y59.354 E88.44728
G1 X53.447 Y59.281 E88.45094
G1 X53.566 Y58.564 E88.4872
G1 X53.763 Y57.865 E88.52343
G1 X54.035 Y57.192 E88.55965
G1 X54.38 Y56.553 E88.59588
G1 X54.793 Y55.955 E88.63213
G1 X55.269 Y55.406 E88.66839
G0 F3600 X55.648 Y55.592
G1 F1800 X56.175 Y55.126 E88.70348
G1 X56.753 Y54.723 E88.73864
G1 X57.372 Y54.388 E88.77375
G1 X58.025 Y54.126 E88.80885
G1 X58.704 Y53.939 E88.84399
G1 X59.399 Y53.83 E88.87909
G1 X60.008 Y53.8 E88.90951
G1 X159.992 Y53.8 E93.89773
G1 X160.695 Y53.84 E93.93286
G1 X161.389 Y53.959 E93.96799
G1 X162.064 Y54.157 E94.00308
G1 X162.713 Y54.429 E94.03819
G1 X163.327 Y54.774 E94.07333
G1 X163.898 Y55.185 E94.10843
G1 X164.419 Y55.659 E94.14357
G1 X164.883 Y56.189 E94.17871
G1 X165.283 Y56.768 E94.21382
G1 X165.615 Y57.389 E94.24895
G1 X165.875 Y58.043 E94.28406
G1 X166.059 Y58.723 E94.31921
G1 X166.165 Y59.419 E94.35433
G1 X166.191 Y59.917 E94.37921
G1 X166.199 Y60.517 E94.40915
G1 X166.2 Y60.6 E94.41329
G1 X166.2 Y158.998 E99.32239
G1 X166.16 Y159.701 E99.35752
G1 X166.059 Y160.314 E99.38851
G1 X165.971 Y160.719 E99.40919
G1 X165.782 Y161.398 E99.44435
G1 X165.518 Y162.05 E99.47945
G1 X165.243 Y162.568 E99.5087
G1 X165.113 Y162.787 E99.52141
G1 X164.72 Y163.371 E99.55653
G1 X164.263 Y163.906 E99.59163
G1 X163.653 Y164.465 E99.63291
G1 X163.304 Y164.744 E99.6552
G1 X162.73 Y165.151 E99.69031
G1 X162.114 Y165.491 E99.72541
G1 X161.463 Y165.759 E99.76053
G1 X160.821 Y165.944 E99.79387
G1 X160.39 Y166.043 E99.81593
G1 X159.696 Y166.161 E99.85105
G1 X159.002 Y166.2 E99.88573
G1 X61.002 Y166.2 E104.77497
G1 X60.119 Y166.137 E104.81913
G1 X59.862 Y166.1 E104.83209
G1 X59.172 Y165.96 E104.86721
G1 X58.502 Y165.743 E104.90235
G1 X58.003 Y165.524 E104.92954
G1 X57.636 Y165.343 E104.94995
G1 X57.023 Y164.996 E104.98509
G1 X56.454 Y164.582 E105.0202
G1 X55.876 Y164.045 E105.05956
G1 X55.697 Y163.856 E105.07255
G1 X55.243 Y163.319 E105.10763
G1 X54.853 Y162.733 E105.14275
G1 X54.586 Y162.226 E105.17134
G1 X54.412 Y161.855 E105.19178
G1 X54.149 Y161.201 E105.22695
G1 X53.963 Y160.523 E105.26202
G1 X53.855 Y159.827 E105.29716
G1 X53.825 Y159.233 E105.32684
G1 X53.8 Y144.761 E106.04885
G1 X53.8 Y60.073 E110.27395
G1 X53.837 Y59.398 E110.30768
G1 X53.845 Y59.325 E110.31134
G1 X53.961 Y58.63 E110.34649
G1 X54.155 Y57.954 E110.38158
G1 X54.425 Y57.303 E110.41674
G1 X54.767 Y56.688 E110.45185
G1 X55.176 Y56.115 E110.48697
G1 X55.648 Y55.592 E110.52212
G0 F3600 X56.025 Y55.783
G1 F1800 X56.547 Y55.346 E110.55608
G1 X57.116 Y54.972 E110.59005
G1 X57.725 Y54.668 E110.62401
G1 X58.366 Y54.437 E110.65801
G1 X59.029 Y54.283 E110.69196
G1 X60.008 Y54.2 E110.74098
G1 X159.992 Y54.2 E115.7292
G1 X160.672 Y54.24 E115.76319
G1 X161.342 Y54.359 E115.79714
G1 X161.994 Y54.556 E115.83112
G1 X162.618 Y54.828 E115.86508
G1 X163.206 Y55.172 E115.89906
G1 X163.75 Y55.582 E115.93305
G1 X164.241 Y56.053 E115.96699
G1 X164.675 Y56.578 E116.00098
G1 X165.044 Y57.15 E116.03494
G1 X165.343 Y57.762 E116.06892
G1 X165.568 Y58.404 E116.10286
G1 X165.717 Y59.069 E116.13686
G1 X165.791 Y59.923 E116.17962
G1 X165.799 Y60.523 E116.20956
G1 X165.8 Y60.6 E116.2134
G1 X165.8 Y158.998 E121.1225
G1 X165.76 Y159.678 E121.15648
G1 X165.668 Y160.23 E121.1844
G1 X165.58 Y160.635 E121.20508
G1 X165.396 Y161.29 E121.23902
G1 X165.137 Y161.92 E121.27301
G1 X164.899 Y162.364 E121.29814
G1 X164.769 Y162.583 E121.31084
G1 X164.388 Y163.147 E121.3448
G1 X163.943 Y163.662 E121.37876
G1 X163.404 Y164.152 E121.4151
G1 X163.055 Y164.431 E121.43739
G1 X162.499 Y164.825 E121.47139
G1 X161.901 Y165.15 E121.50534
G1 X161.269 Y165.403 E121.53931
G1 X160.731 Y165.554 E121.56719
G1 X160.3 Y165.653 E121.58925
G1 X159.629 Y165.766 E121.6232
G1 X159.002 Y165.8 E121.65452
G1 X61.002 Y165.8 E126.54376
G1 X60.176 Y165.741 E126.58508
G1 X59.919 Y165.704 E126.59803
G1 X59.251 Y165.567 E126.63205
G1 X58.605 Y165.354 E126.66599
G1 X58.18 Y165.165 E126.68919
G1 X57.813 Y164.984 E126.70961
G1 X57.221 Y164.647 E126.74359
G1 X56.672 Y164.244 E126.77757
G1 X56.167 Y163.77 E126.81213
G1 X55.988 Y163.581 E126.82511
G1 X55.55 Y163.06 E126.85907
G1 X55.175 Y162.492 E126.89303
G1 X54.948 Y162.056 E126.91755
G1 X54.774 Y161.685 E126.93799
G1 X54.521 Y161.052 E126.972
G1 X54.345 Y160.395 E127.00594
G1 X54.247 Y159.721 E127.03992
G1 X54.225 Y159.232 E127.06434
G1 X54.2 Y144.76 E127.78635
G1 X54.2 Y60.073 E132.0114
G1 X54.235 Y59.441 E132.04298
G1 X54.243 Y59.368 E132.04664
G1 X54.356 Y58.697 E132.08059
G1 X54.548 Y58.044 E132.11455
G1 X54.815 Y57.417 E132.14855
G1 X55.153 Y56.826 E132.18251
G1 X55.559 Y56.279 E132.2165
G1 X56.025 Y55.783 E132.25045
G0 F3600 X56.402 Y55.981
G1 F1800 X56.917 Y55.572 E132.28326
G1 X57.477 Y55.23 E132.316
G1 X58.075 Y54.958 E132.34878
G1 X58.702 Y54.76 E132.38158
G1 X59.348 Y54.641 E132.41435
G1 X60.008 Y54.6 E132.44734
G1 X159.992 Y54.6 E137.43556
G1 X160.648 Y54.64 E137.46835
G1 X161.294 Y54.759 E137.50112
G1 X161.921 Y54.956 E137.53391
G1 X162.519 Y55.228 E137.56669
G1 X163.08 Y55.57 E137.59947
G1 X163.595 Y55.978 E137.63225
G1 X164.057 Y56.445 E137.66502
G1 X164.458 Y56.965 E137.69778
G1 X164.794 Y57.529 E137.73054
G1 X165.058 Y58.131 E137.76333
G1 X165.248 Y58.76 E137.79611
G1 X165.359 Y59.407 E137.82886
G1 X165.392 Y59.928 E137.85491
G1 X165.4 Y60.528 E137.88484
G1 X165.4 Y158.998 E142.79753
G1 X165.36 Y159.654 E142.83032
G1 X165.277 Y160.145 E142.85516
G1 X165.189 Y160.55 E142.87584
G1 X165.011 Y161.182 E142.9086
G1 X164.757 Y161.788 E142.94138
G1 X164.556 Y162.159 E142.96243
G1 X164.426 Y162.378 E142.97514
G1 X164.056 Y162.922 E143.00796
G1 X163.624 Y163.417 E143.04074
G1 X163.154 Y163.84 E143.07228
G1 X162.805 Y164.119 E143.09458
G1 X162.268 Y164.497 E143.12734
G1 X161.689 Y164.807 E143.16011
G1 X161.076 Y165.045 E143.19291
G1 X160.642 Y165.164 E143.21536
G1 X160.211 Y165.263 E143.23743
G1 X159.563 Y165.371 E143.2702
G1 X159.002 Y165.4 E143.29823
G1 X61.002 Y165.4 E148.18747
G1 X60.233 Y165.345 E148.22593
G1 X59.976 Y165.308 E148.23888
G1 X59.332 Y165.175 E148.27169
G1 X58.71 Y164.965 E148.30444
G1 X58.356 Y164.806 E148.32381
G1 X57.989 Y164.625 E148.34422
G1 X57.419 Y164.299 E148.37698
G1 X56.892 Y163.906 E148.40978
G1 X56.457 Y163.495 E148.43964
G1 X56.278 Y163.306 E148.45262
